X:188
T:GAVOTTE 2
Z: Yves BELOTTEAU
M:6/8
L:1/8
Q:1/4=88
K:G
|:BB/2cB/2 AG/2FG/2|AB/2c/2B/2A/2 GB/2A3/2:|
|:GB/2de/2 dB/2d3/2|d/2c/2B/2A/2B/2A/2 GB/2A3/2|Bc/2de/2 dB/2d3/2|d/2c/2
B/2A/2B/2A/2 G3/2G3/2:|
